X:257
T:Boyan Water. Le4.257, The
T:Boyne Water,aka. Le4.257
T:Idbury Hill,aka. Le4.257
L:1/8
B:L.Leadley MS#4 c1850
Z:vmp.Mike Hicken 2016 www.village-music-project.org.uk
N: * This note is a quaver in the original.
M:C|
Q:1/4=120
K:Am
AG|E2e2 efgf|dcBA G2 AB|cBcd edcB|A2E2E2 AG|E2e2 efge|
dcBA G2 AB|cBcd edcB|A4A2:|"*"A2 e3^f g2g2|ag^fe d4|e2a2a2^g2|
a4e4|a3a g2e2|dcBA G2 AB|cBcd edcB|A4A4 :|


